X: 511
T: Missa In festis Apostolorum (I) Domine Deus Agnus Gloria
C: Giovanni Perluigi da Palestrina
L: 1/4
M: 4/2
N: Derived from Gloria_68_e.krn
Q: "Gloria"
V: 1 clef=treble
V: 2 clef=treble
V: 3 clef=treble-8
V: 4 clef=treble-8
V: 5 clef=bass
K: C
[V:1] z8 | 
[V:2] z8 | 
[V:3] z8 | 
[V:4] z8 | 
[V:5] E,4D,2C,2 | 
[V:1] z8 | 
[V:2] z8 | 
[V:3] A4G2F2 | 
[V:4] z8 | 
[V:5] D,4E,2F,2- | 
[V:1] z8 | 
[V:2] z8 | 
[V:3] G4A4 | 
[V:4] z8 | 
[V:5] F,2E,2D,2C,B,, | 
[V:1] z8 | 
[V:2] E4D2C2 | 
[V:3] c4B2A2- | 
[V:4] z8 | 
[V:5] A,,B,,C,2G,,2A,,2 | 
[V:1] z4A4 | 
[V:2] D4E4- | 
[V:3] AGGA/ B/c3A | 
[V:4] z8 | 
[V:5] _B,,4A,,4 | 
[V:1] G2F2G4 | 
[V:2] E2F4E2 | 
[V:3] c2d2c3B | 
[V:4] z8 | 
[V:5] z8 | 
[V:1] A2c2B2A2- | 
[V:2] DCCD/ E/F4 | 
[V:3] A4d4 | 
[V:4] z8 | 
[V:5] F,4D,4 | 
[V:1] A2^G2A4 | 
[V:2] E6F2 | 
[V:3] c2B2>A2A2- | 
[V:4] z8 | 
[V:5] E,2>D,2C,2D,2 | 
[V:1] z4z2A2- | 
[V:2] D4z2E2 | 
[V:3] A2^G2A4 | 
[V:4] z2d2>^c2^cB/ ^c/ | 
[V:5] B,,4A,,4 | 
[V:1] A2B2c3B | 
[V:2] F2G2F2ED | 
[V:3] z8 | 
[V:4] d2G2A3B | 
[V:5] z8 | 
[V:1] AG_B2A4 | 
[V:2] E2F4E2- | 
[V:3] z8 | 
[V:4] c2d4c2 | 
[V:5] z8 | 
[V:1] D4E4- | 
[V:2] ED2<D2^CCB,/ A,/ | 
[V:3] z8 | 
[V:4] _B4A3G/ F/ | 
[V:5] z4z2A,2- | 
[V:1] E4z2A2- | 
[V:2] B,2E2E2F2 | 
[V:3] z8 | 
[V:4] E2B2c2d2 | 
[V:5] A,^G,G,^F,/ G,/A,2D,2 | 
[V:1] A^GG^F/ G/A2D2 | 
[V:2] E4D4 | 
[V:3] z4z2d2- | 
[V:4] B4A2B2 | 
[V:5] E,4^F,2G,2 | 
[V:1] E4F2E2 | 
[V:2] z4z2E2- | 
[V:3] d^c^cB/ ^c/d2G2 | 
[V:4] G4A2c2- | 
[V:5] E,4D,2C,2 | 
[V:1] A4z2A2 | 
[V:2] EDDC/ D/E2A,2 | 
[V:3] A4Bcd2- | 
[V:4] cBA2^G2^F2 | 
[V:5] F,2F,2E,2D,C, | 
[V:1] D2A2B4 | 
[V:2] B,2E6 | 
[V:3] d2c2B4 | 
[V:4] ^G2A4^G2 | 
[V:5] B,,2A,,2E,4 | 
[V:1] ^c8- | 
[V:2] E8- | 
[V:3] A8- | 
[V:4] A8- | 
[V:5] A,,8- | 
[V:1] c8
[V:2] E8
[V:3] A8
[V:4] A8
[V:5] A,,8

